src/assets/android.svg

<svg xmlns="http://www.w3.org/2000/svg" width="58" height="68" fill="none" viewBox="0 0 58 68"><path fill="#2ECC82" d="M11.4086 50.8038C11.4086 52.3561 12.692 53.6262 14.2607 53.6262H17.1129V63.5048C17.1129 65.8474 19.0238 67.7384 21.3911 67.7384C23.7584 67.7384 25.6693 65.8474 25.6693 63.5048V53.6262H31.3736V63.5048C31.3736 65.8474 33.2845 67.7384 35.6518 67.7384C38.0191 67.7384 39.93 65.8474 39.93 63.5048V53.6262H42.7822C44.3508 53.6262 45.6343 52.3561 45.6343 50.8038V22.5795H11.4086V50.8038ZM4.27821 22.5795C1.91094 22.5795 0 24.4705 0 26.8131V46.5702C0 48.9128 1.91094 50.8038 4.27821 50.8038C6.64549 50.8038 8.55643 48.9128 8.55643 46.5702V26.8131C8.55643 24.4705 6.64549 22.5795 4.27821 22.5795ZM52.7647 22.5795C50.3974 22.5795 48.4864 24.4705 48.4864 26.8131V46.5702C48.4864 48.9128 50.3974 50.8038 52.7647 50.8038C55.1319 50.8038 57.0429 48.9128 57.0429 46.5702V26.8131C57.0429 24.4705 55.1319 22.5795 52.7647 22.5795ZM38.5895 6.09646L42.2973 2.42729C42.8677 1.86281 42.8677 0.987852 42.2973 0.423365C41.7269 -0.141122 40.8427 -0.141122 40.2723 0.423365L36.0511 4.60057C33.7979 3.47159 31.231 2.82243 28.5214 2.82243C25.7834 2.82243 23.2164 3.47159 20.9347 4.60057L16.685 0.423365C16.1146 -0.141122 15.2304 -0.141122 14.66 0.423365C14.0896 0.987852 14.0896 1.86281 14.66 2.42729L18.3963 6.12468C14.1752 9.20113 11.4086 14.1404 11.4086 19.757H45.6343C45.6343 14.1404 42.8677 9.17291 38.5895 6.09646ZM22.8171 14.1122H19.965V11.2897H22.8171V14.1122ZM37.0779 14.1122H34.2257V11.2897H37.0779V14.1122Z"/></svg>

<svg xmlns="http://www.w3.org/2000/svg" width="58" height="68" fill="none"><path fill="#2ECC82" d="M11.409 50.804c0 1.552 1.283 2.822 2.852 2.822h2.852v9.879c0 2.342 1.91 4.233 4.278 4.233 2.367 0 4.278-1.89 4.278-4.233v-9.879h5.705v9.879c0 2.342 1.91 4.233 4.278 4.233 2.367 0 4.278-1.89 4.278-4.233v-9.879h2.852c1.569 0 2.852-1.27 2.852-2.822V22.579H11.41v28.225Zm-7.13-28.225C1.91 22.58 0 24.471 0 26.813V46.57c0 2.343 1.91 4.234 4.278 4.234 2.367 0 4.278-1.891 4.278-4.234V26.813c0-2.342-1.91-4.233-4.278-4.233Zm48.486 0c-2.368 0-4.279 1.892-4.279 4.234V46.57c0 2.343 1.911 4.234 4.279 4.234 2.367 0 4.278-1.891 4.278-4.234V26.813c0-2.342-1.911-4.233-4.278-4.233ZM38.59 6.096l3.707-3.669c.57-.564.57-1.44 0-2.004a1.422 1.422 0 0 0-2.025 0l-4.22 4.178a16.797 16.797 0 0 0-7.53-1.779c-2.739 0-5.306.65-7.587 1.779L16.685.423a1.422 1.422 0 0 0-2.025 0c-.57.565-.57 1.44 0 2.004l3.736 3.698C14.176 9.2 11.41 14.14 11.41 19.757h34.225c0-5.617-2.766-10.584-7.044-13.66Zm-15.773 8.016h-2.852V11.29h2.852v2.822Zm14.26 0h-2.851V11.29h2.852v2.822Z"/></svg>
